src/components/00-materials/images-raw/Solar Panel.svg

<svg width="96" height="96" viewBox="0 0 96 96" fill="none" xmlns="http://www.w3.org/2000/svg">
<path d="M40.15 14.4001L20.36 63.2001M41.41 75.2301L41.47 82.6401C41.4795 83.152 41.3665 83.6586 41.1403 84.1179C40.9142 84.5771 40.5815 84.9756 40.17 85.2801C39.6812 85.6526 39.098 85.8812 38.4863 85.9401C37.8745 85.999 37.2585 85.8859 36.7076 85.6135C36.1567 85.3412 35.6927 84.9204 35.3681 84.3986C35.0434 83.8768 34.8709 83.2747 34.87 82.6601V71.5201L41.41 75.2301ZM16.12 60.7801L56.69 83.9201C57.3986 84.3253 58.1855 84.5745 58.9982 84.6508C59.8108 84.7272 60.6305 84.6291 61.4021 84.363C62.1738 84.097 62.8797 83.6691 63.4726 83.1081C64.0655 82.5471 64.5317 81.8659 64.84 81.1101L80.34 43.2601C80.8666 41.9737 80.9085 40.54 80.4579 39.225C80.0073 37.91 79.0949 36.8033 77.89 36.1101L37.25 12.7201C36.5386 12.3119 35.748 12.0608 34.9314 11.9838C34.1148 11.9069 33.2912 12.0058 32.5161 12.274C31.741 12.5421 31.0323 12.9733 30.4378 13.5384C29.8434 14.1036 29.377 14.7895 29.07 15.5501L13.65 53.6401C13.1279 54.9276 13.0905 56.3608 13.5447 57.6738C13.9989 58.9868 14.9139 60.0905 16.12 60.7801V60.7801ZM16 47.8401L66.57 76.9001L16 47.8401ZM19.73 38.6201L70.33 67.7101L19.73 38.6201ZM23.44 29.4401L74.09 58.5401L23.44 29.4401ZM27.56 19.2701L78.11 48.3201L27.56 19.2701ZM73.61 33.6401L53.87 82.3101L73.61 33.6401ZM65.14 28.7701L45.38 77.4701L65.14 28.7701ZM57 24.1101L37.27 72.8501L57 24.1101ZM48.4 19.1401L28.62 67.9101L48.4 19.1401Z" stroke="#00008F" stroke-width="2" stroke-linecap="round" stroke-linejoin="round"/>
</svg>

<svg width="96" height="96" viewBox="0 0 96 96" fill="none" xmlns="http://www.w3.org/2000/svg"><path d="M40.15 14.4L20.36 63.2m21.05 12.03l.06 7.41a3.21 3.21 0 01-1.3 2.64 3.3 3.3 0 01-5.3-2.62V71.52l6.54 3.71zM16.12 60.78l40.57 23.14a5.728 5.728 0 008.15-2.81l15.5-37.85a5.74 5.74 0 00-2.45-7.15L37.25 12.72a5.742 5.742 0 00-8.18 2.83L13.65 53.64a5.74 5.74 0 002.47 7.14v0zM16 47.84L66.57 76.9 16 47.84zm3.73-9.22l50.6 29.09-50.6-29.09zm3.71-9.18l50.65 29.1-50.65-29.1zm4.12-10.17l50.55 29.05-50.55-29.05zm46.05 14.37L53.87 82.31l19.74-48.67zm-8.47-4.87l-19.76 48.7 19.76-48.7zM57 24.11L37.27 72.85 57 24.11zm-8.6-4.97L28.62 67.91 48.4 19.14z" stroke="#00008F" stroke-width="2" stroke-linecap="round" stroke-linejoin="round"/></svg>
